svg/part/skirt_fill.svg

<?xml version="1.0" encoding="UTF-8"?>
<svg width="24px" height="24px" viewBox="0 0 24 24" version="1.1" xmlns="http://www.w3.org/2000/svg" xmlns:xlink="http://www.w3.org/1999/xlink">
    <title>skirt_fill</title>
    <g id="Icon" stroke="none" stroke-width="1" fill="none" fill-rule="evenodd">
        <g id="Part" transform="translate(-624.000000, -144.000000)">
            <g id="skirt_fill" transform="translate(624.000000, 144.000000)">
                <path d="M24,0 L24,24 L0,24 L0,0 L24,0 Z M12.5934901,23.257841 L12.5819402,23.2595131 L12.5108777,23.2950439 L12.4918791,23.2987469 L12.4918791,23.2987469 L12.4767152,23.2950439 L12.4056548,23.2595131 C12.3958229,23.2563662 12.3870493,23.2590235 12.3821421,23.2649074 L12.3780323,23.275831 L12.360941,23.7031097 L12.3658947,23.7234994 L12.3769048,23.7357139 L12.4804777,23.8096931 L12.4953491,23.8136134 L12.4953491,23.8136134 L12.5071152,23.8096931 L12.6106902,23.7357139 L12.6232938,23.7196733 L12.6232938,23.7196733 L12.6266527,23.7031097 L12.609561,23.275831 C12.6075724,23.2657013 12.6010112,23.2592993 12.5934901,23.257841 L12.5934901,23.257841 Z M12.8583906,23.1452862 L12.8445485,23.1473072 L12.6598443,23.2396597 L12.6498822,23.2499052 L12.6498822,23.2499052 L12.6471943,23.2611114 L12.6650943,23.6906389 L12.6699349,23.7034178 L12.6699349,23.7034178 L12.678386,23.7104931 L12.8793402,23.8032389 C12.8914285,23.8068999 12.9022333,23.8029875 12.9078286,23.7952264 L12.9118235,23.7811639 L12.8776777,23.1665331 C12.8752882,23.1545897 12.8674102,23.1470016 12.8583906,23.1452862 L12.8583906,23.1452862 Z M12.1430473,23.1473072 C12.1332178,23.1423925 12.1221763,23.1452606 12.1156365,23.1525954 L12.1099173,23.1665331 L12.0757714,23.7811639 C12.0751323,23.7926639 12.0828099,23.8018602 12.0926481,23.8045676 L12.108256,23.8032389 L12.3092106,23.7104931 L12.3186497,23.7024347 L12.3186497,23.7024347 L12.3225043,23.6906389 L12.340401,23.2611114 L12.337245,23.2485176 L12.337245,23.2485176 L12.3277531,23.2396597 L12.1430473,23.1473072 Z" id="MingCute" fill-rule="nonzero"></path>
                <path d="M7.49277,2.13815 C7.885,1.90737 8.3835,1.97054 8.70575,2.29167 C9.03933,2.62083 9.41518,2.90836 9.8046,3.16797 C10.5048,3.63477 11.3005,4.00002 11.9999,4.00002 C12.6993,4.00002 13.495,3.63477 14.1952,3.16797 C14.778,2.77946 15.204,2.37889 15.2815,2.30388 C15.6091,1.98458 16.106,1.90217 16.507,2.13815 C16.8998,2.36924 17.0866,2.8366 16.9614,3.27474 L15.1471,9.62485 C15.797,10.1971 16.3381,10.9179 16.7849,11.668 C17.8361,13.4328 18.5205,15.4685 18.8863,17.4857 C18.9948,18.0843 19.1812,18.8736 18.8944,19.4472 C18.4324,20.3712 16.9905,20.4555 16.0963,20.5562 C14.9377,20.6868 13.4603,20.75 12,20.75 C10.5396,20.75 9.06227,20.6868 7.90361,20.5563 C7.00409,20.4549 5.57904,20.3944 5.10552,19.4472 C4.81291,18.8618 5.0043,18.0891 5.11371,17.4857 C5.47947,15.4685 6.16385,13.4328 7.21508,11.668 C7.6618,10.918 8.20288,10.1972 8.85273,9.62498 L7.03837,3.27474 C6.91319,2.8366 7.10004,2.36924 7.49277,2.13815 Z M10.6561,8.65672 C11.1011,8.54749 11.5642,8.50003 12,8.50002 C12.4356,8.50002 12.8988,8.54747 13.3437,8.65667 L14.266,5.42846 C13.6002,5.74816 12.8192,6.00002 11.9999,6.00002 C11.1806,6.00002 10.3996,5.74816 9.73375,5.42846 L10.6561,8.65672 Z" id="形状" fill="#09244B"></path>
            </g>
        </g>
    </g>
</svg>

<svg xmlns="http://www.w3.org/2000/svg" width="24" height="24"><g fill="none" fill-rule="evenodd"><path d="M24 0v24H0V0h24ZM12.593 23.258l-.011.002-.071.035-.02.004-.014-.004-.071-.035c-.01-.004-.019-.001-.024.005l-.004.01-.017.428.005.02.01.013.104.074.015.004.012-.004.104-.074.012-.016.004-.017-.017-.427c-.002-.01-.009-.017-.017-.018Zm.265-.113-.013.002-.185.093-.01.01-.003.011.018.43.005.012.008.007.201.093c.012.004.023 0 .029-.008l.004-.014-.034-.614c-.003-.012-.01-.02-.02-.022Zm-.715.002a.023.023 0 0 0-.027.006l-.006.014-.034.614c0 .012.007.02.017.024l.015-.002.201-.093.01-.008.004-.011.017-.43-.003-.012-.01-.01-.184-.092Z"/><path fill="#09244B" d="M7.493 2.138a1 1 0 0 1 1.213.154 7.4 7.4 0 0 0 1.099.876C10.505 3.635 11.3 4 12 4c.7 0 1.495-.365 2.195-.832a8.35 8.35 0 0 0 1.086-.864c.328-.32.825-.402 1.226-.166a1 1 0 0 1 .454 1.137l-1.814 6.35c.65.572 1.191 1.293 1.638 2.043 1.051 1.765 1.735 3.8 2.101 5.818.109.598.295 1.388.008 1.961-.462.924-1.903 1.009-2.798 1.11-1.158.13-2.636.193-4.096.193s-2.938-.063-4.096-.194c-.9-.101-2.325-.162-2.798-1.109-.293-.585-.102-1.358.008-1.961.365-2.017 1.05-4.053 2.101-5.818.447-.75.988-1.47 1.638-2.043l-1.815-6.35a1 1 0 0 1 .455-1.137Zm3.163 6.519A5.7 5.7 0 0 1 12 8.5a5.7 5.7 0 0 1 1.344.157l.922-3.229C13.6 5.748 12.819 6 12 6c-.82 0-1.6-.252-2.266-.572l.922 3.229Z"/></g></svg>
